X: 10725
T: Doyles Of Maulykevane, The
R: polka
M: 2/4
K: Gmajor
|:ed B>d|gd B2|BA AG/A/|B/c/B/A/ Bd|
ed B2|g/f/e/d/ BG|A/B/A/G/ AB|G2 G2:|
|:d2 dB/d/|g2 gf|e^d/e/ ge|d2- d2|
ed Bd|gd BG/A/|B/c/B/A/ BA|G2- G2:|

